X: 145123
T: JOHNNIE KNOCKED OVER HIS UNCLE
C: D. WILLIAMS
%R: hornpipe, reel
B: James Kerr "Merry Melodies" v.1 p.45 s.1 #23
Z: 2016 John Chambers <jc:trillian.mit.edu>
M: C
L: 1/8
K: G
[|\
Bdgb agfe | agfe edBG |\
ecAF cAFD | GFGB D2(dc) |\
Bdgb agfe | agfe ed^cd |\
fedc BAGF | G2B2 G2z2 |]
[K:D] |:\
Adcd Be^de | bgec (de)f2 |\
Adcd Be^de | efed (ce)a2 |\
Adcd Be^de | bgec defa |\
gfed cABc | d2f2 d2z2 :|

%%sep 1 1 500
%%sep 1 1 500

